X: 685
T: Eviç Seyir
C: Şefik Gürmeriç
O: Turkey
F: http://compmusic.upf.edu/node/140
N: evic--seyir--sofyan--1--sefik_gurmeric
N: makam= evic
N: form= seyir
N: usul= sofyan = 4/4
M: 4/4
L: 1/16
K: C _1/4B ^f ^c 
Q: 1/4=60
%%MIDI tuningsystem comma53
z4 f2f2 f4 f4  | g2ab a2g2 f3^e d4  | \
w:   |   | 
z2=c'2 b2a2 a3g aggf  | 
w:   | 
f6^e2 d2e2 f4  | z4 e2^3/4f2 g4 f2e2  | \
w:   |   | 
a6g2 ^3/4f3e d4  | z2d4d2 d4 =c2d2  | 
w:   |   | 
e2=fg fed2 =cdc_2/4B A4  | z2A4A2 d8  | \
w:   |   | 
d=fed =cBAG F4 B4  | 
w:   | 
z2A4B2 =c4 B2A2  | A3G AGGF F8  | |


